images/email.svg

<svg fill="none" height="36" viewBox="0 0 45 36" width="45" xmlns="http://www.w3.org/2000/svg"><path d="m22.1678 19.6017.3322.2953.3322-.2953 17.5289-15.58234.9828-.87369h-1.315-35.05638-1.31496l.98275.87368zm6.1973-1.7316-.3309-.3921-.3834.3408-5.1542 4.5816-5.1515-4.5815-.3835-.341-.3309.3922-12.33424 14.6169-.69402.8224h1.07615 35.63861 1.0762l-.6941-.8224zm13.4402 13.0523.8822 1.0459v-1.3683-25.03371-1.11332l-.8322.7396-12.0684 10.72603-.3642.3237.3142.3724zm-26.5422-14.3062.3142-.3725-.3642-.3237-12.06847-10.72454-.83213-.73947v1.11322 25.03079 1.3682l.88218-1.0458zm-14.7631 18.6143v-34.00003h44v34.00003z" fill="#eceded" stroke="#eceded"/></svg>

<svg width="45" height="36" viewBox="0 0 45 36" fill="none" xmlns="http://www.w3.org/2000/svg">
<path d="M22.1678 19.6017L22.5 19.897L22.8322 19.6017L40.3611 4.01936L41.3439 3.14567H40.0289H4.97252H3.65756L4.64031 4.01935L22.1678 19.6017ZM28.3651 17.8701L28.0342 17.478L27.6508 17.8188L22.4966 22.4004L17.3451 17.8189L16.9616 17.4779L16.6307 17.8701L4.29646 32.487L3.60244 33.3094H4.67859H40.3172H41.3934L40.6993 32.487L28.3651 17.8701ZM41.8053 30.9224L42.6875 31.9683V30.6V5.56629V4.45297L41.8553 5.19257L29.7869 15.9186L29.4227 16.2423L29.7369 16.6147L41.8053 30.9224ZM15.2631 16.6162L15.5773 16.2437L15.2131 15.92L3.14463 5.19546L2.3125 4.45599V5.56921V30.6V31.9682L3.19468 30.9224L15.2631 16.6162ZM0.5 35.2305V1.23047H44.5V35.2305H0.5Z" fill="#ECEDED" stroke="#ECEDED"/>
</svg>
